images/youtube.svg

<svg width="25" height="19" viewBox="0 0 25 19" fill="none" xmlns="http://www.w3.org/2000/svg">
<path fill-rule="evenodd" clip-rule="evenodd" d="M7.74019 0.913502C5.9176 0.980991 4.04402 1.09437 3.57669 1.16574C1.90533 1.42068 0.837947 2.28487 0.451845 3.69638C0.0725407 5.08209 -0.118471 9.38852 0.0791682 12.0923C0.288533 14.9558 0.428223 15.6226 0.993441 16.4557C1.97722 17.9057 3.66216 18.1525 12.5835 18.1534C18.7618 18.1539 21.8592 17.9567 22.7618 17.505C24.3042 16.7333 24.6454 15.8706 24.9195 12.0499C25.1166 9.30382 24.9348 5.07703 24.5632 3.76185C24.0559 1.96666 23.0349 1.32771 20.3062 1.09808C17.4728 0.859512 11.5497 0.77262 7.74019 0.913502ZM13.9829 8.05259C15.3134 8.81234 16.4027 9.47186 16.4037 9.51826C16.4054 9.59132 13.2112 11.4547 10.7566 12.8124L9.9494 13.259V9.51826V5.77755L10.7566 6.22433C11.2005 6.47015 12.6525 7.29284 13.9829 8.05259Z" fill="#F5F5F6"/>
</svg>

<svg width="25" height="19" fill="none" xmlns="http://www.w3.org/2000/svg"><path fill-rule="evenodd" clip-rule="evenodd" d="M7.74.914c-1.822.067-3.696.18-4.163.252C1.905 1.42.837 2.285.452 3.696c-.38 1.386-.57 5.693-.373 8.396.21 2.864.35 3.53.914 4.364.984 1.45 2.67 1.697 11.59 1.697 6.179 0 9.276-.196 10.179-.648 1.542-.772 1.883-1.634 2.157-5.455.198-2.746.016-6.973-.356-8.288-.507-1.795-1.528-2.434-4.257-2.664C17.473.86 11.55.773 7.74.914zm6.243 7.139c1.33.76 2.42 1.419 2.42 1.465.002.073-3.192 1.937-5.646 3.294l-.808.447V5.778l.808.446c.444.246 1.896 1.069 3.226 1.829z" fill="#F5F5F6"/></svg>
